X:483
T:La Russe #2
C:Joe Buchanan's Scottish Tome - Page 166.2
I:164 2
Z:Carl Allison
R:Polka
L:1/8
M:4/4
K:D
DD | "D"D2 FF F2 AA | "D"A2 d2 d2 cd | "G"e2 d2 B2 G2 | "Em"B2 A2 "A7"AGFE |
"D"D2 FF F2 AA | "D"A2 d2 d2 cd | "Em"B2 A2 A2 "A7"C2 | "A7"E2 < D2 "D"D4 :|
DD | "A"E2 A2 A2 > F2 | "A"E2 e2 e2 c2 | "D"d2 > c2 "E"d2 B2| "A"cded cBAF |
"A"E2 A2 A2 > F2 | "A"E2 e2 e2 c2 | "D"d2 > c2 d2 B2 | "A"A4 "A7"A2 :|
%
W:Errata: Last measure of second line, added "<" between the E and D.

